X:1
T:Suffer Little Children
T:Suffer Little Children
T:George Frederick Root (1820-1895)
T:Public Domain Courtesy of the Cyber Hymnal™
C:George Frederick Root (1820-1895)
Z:Public Domain
Z:Courtesy of the Cyber Hymnal™
%%score ( 1 2 ) ( 3 4 )
L:1/8
M:4/4
K:G
V:1 treble 
V:2 treble 
V:3 bass 
V:4 bass 
V:1
 D2 | [DB]2 [DG]2 [DF]2 [DA]2 | [DG]3 [DA] [DG]2 [B,D]2 | [CE]2 [EG]2 [DF]2 [DA]2 | [DG]6 D2 | %5
 [DB]2 [DG]2 [DF]2 [DA]2 | [DG]3 [DA] [DG]2 [GB]2 | [FA]2 [EG]2 [DF]2 [^CE]2 | D6 D2 x8 | %9
 [FA]2 [EG]2 [DF]2 [EG]2 | [FA]2 [GB]2 [Ac]2 D2 | c2 B2 A2 G2 | F2 G2 A2 D2 | %13
 [DB]2 [DG]2 [DF]2 [DA]2 | [DG]3 [DA] [DG]2 [DB]2 | [Ec]2 [EA]2 [DG]2 [CF]2 | [B,G]6 |] %17
V:2
 D2 | x8 | x8 | x8 | x6 D2 | x8 | x8 | x8 | D6 D2 x8 | x8 | x6 D2 | c2 B2 A2 G2 | F2 G2 A2 D2 | %13
 x8 | x8 | x8 | x6 |] %17
V:3
 D,2 | G,2 [G,B,]2 [D,A,]2 [D,C]2 | [G,,B,]3 [G,,C] [G,,B,]2 [G,,G,]2 | %3
 [C,G,]2 [C,C]2 [D,A,]2 [D,C]2 | [G,,B,]6 D,2 | G,2 [G,B,]2 [D,A,]2 [D,C]2 | %6
 [G,,B,]3 [G,,C] [G,,B,]2 [G,,D]2 | [A,,D]2 [A,,A,]2 [A,,A,]2 [A,,G,]2 | %8
 [D,F,]6 [D,D]2 [D,D]2 [D,D]2 [D,D]2 [D,D]2 | [D,D]2 [D,D]2 [D,D]2 D,2 | C2 B,2 A,2 G,2 | %11
 F,2 G,2 A,2 D,2 | G,2 [G,B,]2 [D,A,]2 [D,C]2 | [G,,B,]3 [G,,C] [G,,B,]2 [G,,G,]2 | %14
 [C,G,]2 [C,C]2 [D,B,]2 [D,A,]2 | [G,,G,]6 x2 | x6 |] %17
V:4
 D,2 | G,2 x6 | x8 | x8 | x6 D,2 | G,2 x6 | x8 | x8 | x16 | x6 D,2 | C2 B,2 A,2 G,2 | %11
 F,2 G,2 A,2 D,2 | G,2 x6 | x8 | x8 | x8 | x6 |] %17

